icons/erb.svg

<svg xmlns="http://www.w3.org/2000/svg" width="16" height="16" fill="none"><path fill="#A432EA" fill-rule="evenodd" d="M5 3h6l4 4-7 7-7-7 4-4ZM3 7l3-3 1 1-2 2 2 2v2L3 7Zm10 0-3-3-1 1 2 2-2 2v2l4-4Z" clip-rule="evenodd"/></svg>

<svg width="16" height="16" viewBox="0 0 16 16" fill="none" xmlns="http://www.w3.org/2000/svg">
<path fill-rule="evenodd" clip-rule="evenodd" d="M5 3H11L15 7L8 14L1 7L5 3ZM3 7L6 4L7 5L5 7L7 9V11L3 7ZM13 7L10 4L9 5L11 7L9 9V11L13 7Z" fill="#A432EA"/>
</svg>
